X: 42723
T: Whistling Postman, The
R: reel
M: 4/4
K: Dmajor
fd~d2 edef|dBAF EDEF|D2 (3FED AD (3FED|defd ge ag|
fd~d2 eB~B2|dBAF EAFE|D2FA dcdf|edBc d2de:|
fd~d2 dfaf|bfaf gfec|dfaf ~g2gb|afdf e2de|
fd~d2 dfaf|bfaf gfec|dBAF ABdf|edef d2de|
fd~d2 dfaf|bfaf gfec|dfaf ~g2gb|afdf e2fg|
~a2ab afdf|gfgf edBc|dBAF ABdf|edef d2de||

